symbols/web/notification_important/materialsymbolsoutlined/notification_important_wght500_20px.svg

<svg xmlns="http://www.w3.org/2000/svg" height="20" width="20"><path d="M9.125 10.708h1.75v-4.02h-1.75ZM10 13.271q.354 0 .625-.261.271-.26.271-.635 0-.354-.271-.625T10 11.479q-.354 0-.625.271t-.271.625q0 .375.271.635.271.261.625.261Zm-6.958 2.708V14H4.75V8.438q0-1.771 1.073-3.167t2.76-1.833v-.563q0-.583.417-.99.417-.406 1-.406t1 .406q.417.407.417.99v.563q1.708.437 2.76 1.833 1.052 1.396 1.052 3.167V14h1.729v1.979ZM10 9.562Zm0 8.938q-.729 0-1.229-.49-.5-.489-.5-1.218h3.458q0 .729-.5 1.218-.5.49-1.229.49ZM6.729 14h6.521V8.458q0-1.354-.948-2.302T10 5.208q-1.354 0-2.313.948-.958.948-.958 2.302Z"/></svg>

<svg xmlns="http://www.w3.org/2000/svg" height="20" width="20"><path d="M9.125 10.708H10.875V6.688H9.125ZM10 13.271Q10.354 13.271 10.625 13.01Q10.896 12.75 10.896 12.375Q10.896 12.021 10.625 11.75Q10.354 11.479 10 11.479Q9.646 11.479 9.375 11.75Q9.104 12.021 9.104 12.375Q9.104 12.75 9.375 13.01Q9.646 13.271 10 13.271ZM3.042 15.979V14H4.75V8.438Q4.75 6.667 5.823 5.271Q6.896 3.875 8.583 3.438V2.875Q8.583 2.292 9 1.885Q9.417 1.479 10 1.479Q10.583 1.479 11 1.885Q11.417 2.292 11.417 2.875V3.438Q13.125 3.875 14.177 5.271Q15.229 6.667 15.229 8.438V14H16.958V15.979ZM10 9.562Q10 9.562 10 9.562Q10 9.562 10 9.562Q10 9.562 10 9.562Q10 9.562 10 9.562ZM10 18.5Q9.271 18.5 8.771 18.01Q8.271 17.521 8.271 16.792H11.729Q11.729 17.521 11.229 18.01Q10.729 18.5 10 18.5ZM6.729 14H13.25V8.458Q13.25 7.104 12.302 6.156Q11.354 5.208 10 5.208Q8.646 5.208 7.687 6.156Q6.729 7.104 6.729 8.458Z"/></svg>
